exported-svg/map-pin.svg

<svg height="24" viewBox="0 0 24 24" width="24" xmlns="http://www.w3.org/2000/svg"><path d="m22 9.5c0 3.2170523-1.7449508 6.4161287-4.6370237 9.4688723-1.0016628 1.0573107-2.073381 2.0218572-3.1452629 2.8753928-.3754594.2989769-.7244586.5629635-1.0382494.7895901-.1897778.1370618-.3267351.2319174-.4021139.2821699-.1679497.1119665-.3867505.1119665-.5547002 0-.0753788-.0502525-.2123361-.1451081-.4021139-.2821699-.3137908-.2266266-.66279-.4906132-1.0382494-.7895901-1.07188186-.8535356-2.14360015-1.8180821-3.14526294-2.8753928-2.89207287-3.0527436-4.63702366-6.25182-4.63702366-9.4688723 0-5.24670516 4.25329488-9.5 9.5-9.5 5.2467051 0 9.5 4.25329484 9.5 9.5zm-9.4060265 12.323176c.3014436-.2177092.6379913-.4722774 1.0008131-.7611911 1.0374931-.8261519 2.0751499-1.7600429 3.0422371-2.7808572 2.7329271-2.8847564 4.3629763-5.87318 4.3629763-8.7811277 0-4.69442041-3.8055796-8.5-8.5-8.5-4.69442037 0-8.5 3.80557959-8.5 8.5 0 2.9079477 1.63004921 5.8963713 4.36297634 8.7811277.96708721 1.0208143 2.00474396 1.9547053 3.04223706 2.7808572.3628218.2889137.6993695.5434819 1.0008131.7611911.0331404.0239347.0644835.0464432.0939735.0675097.02949-.0210665.0608331-.043575.0939735-.0675097zm-.0939735-8.8231761c-1.9329966 0-3.5-1.5670034-3.5-3.50000003s1.5670034-3.5 3.5-3.5 3.5 1.56700337 3.5 3.5-1.5670034 3.50000003-3.5 3.50000003zm0-1c1.3807119 0 2.5-1.1192882 2.5-2.50000003 0-1.38071188-1.1192881-2.5-2.5-2.5s-2.5 1.11928812-2.5 2.5c0 1.38071183 1.1192881 2.50000003 2.5 2.50000003z"/></svg>

<?xml version="1.0" encoding="UTF-8"?>
<svg width="24px" height="24px" viewBox="0 0 24 24" version="1.1" xmlns="http://www.w3.org/2000/svg" xmlns:xlink="http://www.w3.org/1999/xlink">
    <!-- Generator: Sketch 55.2 (78181) - https://sketchapp.com -->
    <title>map-pin</title>
    <desc>Created with Sketch.</desc>
    <g id="map-pin" stroke="none" stroke-width="1" fill="none" fill-rule="evenodd">
        <path d="M22,9.5 C22,12.7170523 20.2550492,15.9161287 17.3629763,18.9688723 C16.3613135,20.026183 15.2895953,20.9907295 14.2177134,21.8442651 C13.842254,22.143242 13.4932548,22.4072286 13.179464,22.6338552 C12.9896862,22.770917 12.8527289,22.8657726 12.7773501,22.9160251 C12.6094004,23.0279916 12.3905996,23.0279916 12.2226499,22.9160251 C12.1472711,22.8657726 12.0103138,22.770917 11.820536,22.6338552 C11.5067452,22.4072286 11.157746,22.143242 10.7822866,21.8442651 C9.71040474,20.9907295 8.63868645,20.026183 7.63702366,18.9688723 C4.74495079,15.9161287 3,12.7170523 3,9.5 C3,4.25329484 7.25329488,0 12.5,0 C17.7467051,0 22,4.25329484 22,9.5 Z M12.5939735,21.823176 C12.8954171,21.6054668 13.2319648,21.3508986 13.5947866,21.0619849 C14.6322797,20.235833 15.6699365,19.301942 16.6370237,18.2811277 C19.3699508,15.3963713 21,12.4079477 21,9.5 C21,4.80557959 17.1944204,1 12.5,1 C7.80557963,1 4,4.80557959 4,9.5 C4,12.4079477 5.63004921,15.3963713 8.36297634,18.2811277 C9.33006355,19.301942 10.3677203,20.235833 11.4052134,21.0619849 C11.7680352,21.3508986 12.1045829,21.6054668 12.4060265,21.823176 C12.4391669,21.8471107 12.47051,21.8696192 12.5,21.8906857 C12.52949,21.8696192 12.5608331,21.8471107 12.5939735,21.823176 Z" id="Shape" fill="#000000" fill-rule="nonzero"></path>
        <path d="M12.5,12.9999999 C14.4329966,12.9999999 16,11.4329965 16,9.49999987 C16,7.56700324 14.4329966,5.99999987 12.5,5.99999987 C10.5670034,5.99999987 9,7.56700324 9,9.49999987 C9,11.4329965 10.5670034,12.9999999 12.5,12.9999999 Z M12.5,11.9999999 C11.1192881,11.9999999 10,10.8807117 10,9.49999987 C10,8.11928799 11.1192881,6.99999987 12.5,6.99999987 C13.8807119,6.99999987 15,8.11928799 15,9.49999987 C15,10.8807117 13.8807119,11.9999999 12.5,11.9999999 Z" id="Oval" fill="#000000" fill-rule="nonzero"></path>
    </g>
</svg>
